X: 071511
T: Glenn Owen
T: Gleann Eoghain
S: B.Breathnach: "Ceol Rince na hEireann" II/154
Z: B.Black
L: 1/8
M: 4/4
R: reel
K: G
AG|F2 DB ABAG|FDFG A2 d2|F2 DF ABAF|GFEF GBAG|
F2 DF ABAG|FD (3EFG A2 d2|F2 DF ABAF|GFEF G2||
Bc|(3dcB (3cBA BGFG|Adcd A2 Bc|d2 cA BG G2|AdcA G2 (3ABc|
d2 cA BG G2|Ad d2 efge|dBcA BG G2|AdcA G2||
de|fd d2 fd d2|fdfg abag|fd d2 fd d2|(3B^cd ef gbag|
fd d2 fd d2|fdfg abag|f2 af gfed|(3B^cd ef g2||
